website/static/img/icons/white/command-line.svg

<svg viewBox="0 0 448 512" xmlns="http://www.w3.org/2000/svg"><path d="m384 64c17.7 0 32 14.3 32 32v320c0 17.7-14.3 32-32 32h-320c-17.7 0-32-14.3-32-32v-320c0-17.7 14.3-32 32-32zm-320-32c-35.3 0-64 28.7-64 64v320c0 35.3 28.7 64 64 64h320c35.3 0 64-28.7 64-64v-320c0-35.3-28.7-64-64-64zm19.9 117.6c-5.8 6.7-5 16.8 1.7 22.6l97.8 83.8-97.8 83.9c-6.7 5.8-7.5 15.8-1.7 22.6s15.9 7.5 22.6 1.7l112-96c3.5-3 5.6-7.5 5.6-12.1s-2-9.1-5.6-12.1l-112-96c-6.7-5.8-16.8-5-22.6 1.7zm124.1 202.4c-8.8 0-16 7.2-16 16s7.2 16 16 16h160c8.8 0 16-7.2 16-16s-7.2-16-16-16z" fill="#fff"/></svg>

<svg xmlns="http://www.w3.org/2000/svg" viewBox="0 0 448 512"><!--! Font Awesome Pro 6.4.0 by @fontawesome - https://fontawesome.com License - https://fontawesome.com/license (Commercial License) Copyright 2023 Fonticons, Inc. --><path fill="#fff" d="M384 64c17.7 0 32 14.3 32 32V416c0 17.7-14.3 32-32 32H64c-17.7 0-32-14.3-32-32V96c0-17.7 14.3-32 32-32H384zM64 32C28.7 32 0 60.7 0 96V416c0 35.3 28.7 64 64 64H384c35.3 0 64-28.7 64-64V96c0-35.3-28.7-64-64-64H64zM83.9 149.6c-5.8 6.7-5 16.8 1.7 22.6L183.4 256 85.6 339.9c-6.7 5.8-7.5 15.8-1.7 22.6s15.9 7.5 22.6 1.7l112-96c3.5-3 5.6-7.5 5.6-12.1s-2-9.1-5.6-12.1l-112-96c-6.7-5.8-16.8-5-22.6 1.7zM208 352c-8.8 0-16 7.2-16 16s7.2 16 16 16H368c8.8 0 16-7.2 16-16s-7.2-16-16-16H208z"/></svg>
